svg/fluentd.svg

<?xml version="1.0" encoding="UTF-8"?>
<svg xmlns="http://www.w3.org/2000/svg" xmlns:xlink="http://www.w3.org/1999/xlink" width="38.826" height="32" viewBox="0 0 38.826 32">
<defs>
<linearGradient id="linear-pattern-0" gradientUnits="userSpaceOnUse" x1="-12.067" y1="-1135.381958" x2="435.002014" y2="-1135.381958" gradientTransform="matrix(0.08836, 0, 0, 0.08836, 0.305, 109.960999)">
<stop offset="0" stop-color="rgb(56.862745%, 82.745098%, 94.901961%)" stop-opacity="1"/>
<stop offset="0.266" stop-color="rgb(43.529412%, 69.803922%, 87.058824%)" stop-opacity="1"/>
<stop offset="0.521" stop-color="rgb(33.333333%, 59.607843%, 80.784314%)" stop-opacity="1"/>
<stop offset="0.673" stop-color="rgb(29.411765%, 56.078431%, 78.431373%)" stop-opacity="1"/>
</linearGradient>
<linearGradient id="linear-pattern-1" gradientUnits="userSpaceOnUse" x1="5.034" y1="-964.815979" x2="430.799011" y2="-964.815979" gradientTransform="matrix(0.08836, 0, 0, 0.08836, 0.305, 109.960999)">
<stop offset="0" stop-color="rgb(17.254902%, 61.960784%, 78.039216%)" stop-opacity="1"/>
<stop offset="0.404" stop-color="rgb(17.254902%, 38.823529%, 64.705882%)" stop-opacity="1"/>
<stop offset="1" stop-color="rgb(22.352941%, 36.470588%, 63.137255%)" stop-opacity="1"/>
</linearGradient>
<linearGradient id="linear-pattern-2" gradientUnits="userSpaceOnUse" x1="5.027" y1="-1054.145996" x2="430.791992" y2="-1054.145996" gradientTransform="matrix(0.08836, 0, 0, 0.08836, 0.305, 109.960999)">
<stop offset="0" stop-color="rgb(30.980392%, 66.666667%, 76.862745%)" stop-opacity="1"/>
<stop offset="0.002" stop-color="rgb(18.431373%, 45.882353%, 69.411765%)" stop-opacity="1"/>
<stop offset="1" stop-color="rgb(20.784314%, 43.137255%, 67.45098%)" stop-opacity="1"/>
</linearGradient>
<linearGradient id="linear-pattern-3" gradientUnits="userSpaceOnUse" x1="157.651993" y1="-1120.05603" x2="433.240997" y2="-1120.05603" gradientTransform="matrix(0.08836, 0, 0, 0.08836, 0.305, 109.960999)">
<stop offset="0" stop-color="rgb(30.980392%, 66.666667%, 76.862745%)" stop-opacity="1"/>
<stop offset="0.002" stop-color="rgb(18.431373%, 50.588235%, 71.372549%)" stop-opacity="1"/>
<stop offset="1" stop-color="rgb(23.137255%, 36.862745%, 66.27451%)" stop-opacity="1"/>
</linearGradient>
<linearGradient id="linear-pattern-4" gradientUnits="userSpaceOnUse" x1="157.641998" y1="-1014.547974" x2="433.230011" y2="-1014.547974" gradientTransform="matrix(0.08836, 0, 0, 0.08836, 0.305, 109.960999)">
<stop offset="0" stop-color="rgb(30.980392%, 66.666667%, 76.862745%)" stop-opacity="1"/>
<stop offset="0.002" stop-color="rgb(11.764706%, 21.568627%, 45.098039%)" stop-opacity="1"/>
<stop offset="1" stop-color="rgb(12.54902%, 20%, 43.921569%)" stop-opacity="1"/>
</linearGradient>
<linearGradient id="linear-pattern-5" gradientUnits="userSpaceOnUse" x1="336.002991" y1="-991.530029" x2="336.002991" y2="-1142.651001" gradientTransform="matrix(0.08836, 0, 0, 0.08836, 0.305, 109.960999)">
<stop offset="0" stop-color="rgb(30.980392%, 66.666667%, 76.862745%)" stop-opacity="1"/>
<stop offset="0.002" stop-color="rgb(17.254902%, 35.294118%, 60.392157%)" stop-opacity="1"/>
<stop offset="1" stop-color="rgb(21.568627%, 27.058824%, 50.196078%)" stop-opacity="1"/>
</linearGradient>
<linearGradient id="linear-pattern-6" gradientUnits="userSpaceOnUse" x1="-40.933998" y1="-1009.901978" x2="272.681" y2="-1009.901978" gradientTransform="matrix(0.08836, 0, 0, 0.08836, 0.305, 109.960999)">
<stop offset="0.112" stop-color="rgb(21.960784%, 69.411765%, 85.490196%)" stop-opacity="1"/>
<stop offset="1" stop-color="rgb(19.607843%, 43.529412%, 70.980392%)" stop-opacity="1"/>
</linearGradient>
</defs>
<path fill-rule="nonzero" fill="rgb(16.470588%, 34.901961%, 63.529412%)" fill-opacity="1" d="M 37.894531 13.761719 L 37.230469 13.761719 C 36.019531 13.746094 33.6875 13.878906 31.585938 15.699219 C 26.546875 20.054688 25.398438 26.476562 16.785156 29.941406 C 9.601562 32.832031 0.746094 30.101562 0.746094 30.101562 C 0.746094 30.101562 8.644531 29.550781 9.6875 23.527344 C 10.511719 18.816406 6.214844 15.46875 3.53125 11.21875 C 0.789062 6.886719 0.09375 3.292969 1.410156 1.734375 C 5.148438 -2.683594 15.441406 9.253906 20.558594 10.863281 C 25.558594 12.4375 28.933594 8.789062 33.078125 9.316406 C 34.402344 9.484375 35.046875 10.058594 35.472656 10.785156 C 35.613281 11.03125 35.976562 11.863281 36.292969 12.171875 C 36.605469 12.472656 37.019531 12.691406 37.40625 12.921875 C 37.894531 13.214844 38.378906 13.761719 37.894531 13.761719 "/>
<path fill-rule="nonzero" fill="url(#linear-pattern-0)" d="M 14.238281 6.859375 C 13.003906 5.914062 11.730469 4.933594 10.464844 4.035156 C 10.183594 3.832031 9.902344 3.636719 9.617188 3.441406 C 6.25 1.136719 3.132812 -0.304688 1.410156 1.734375 C 0.09375 3.292969 0.789062 6.886719 3.53125 11.21875 C 3.554688 11.265625 3.582031 11.308594 3.617188 11.351562 C 5.050781 13.558594 9.183594 18.738281 19.003906 18.515625 C 19.648438 17.828125 20.628906 16.539062 21.898438 15.121094 C 19.832031 11.800781 16.738281 8.902344 14.238281 6.859375 "/>
<path fill-rule="nonzero" fill="url(#linear-pattern-1)" d="M 24.128906 22.476562 C 24.164062 21 23.898438 19.550781 23.386719 18.144531 C 21.929688 18.359375 20.464844 18.480469 18.992188 18.507812 C 17.792969 19.78125 15.050781 23.191406 10.5 26.265625 C 4.457031 30.355469 0.746094 30.101562 0.746094 30.101562 C 0.746094 30.101562 9.601562 32.832031 16.773438 29.949219 C 19.347656 28.917969 21.253906 27.617188 22.800781 26.1875 C 23.058594 25.9375 24.074219 24.683594 24.128906 22.476562 "/>
<path fill-rule="nonzero" fill="url(#linear-pattern-2)" d="M 21.890625 15.121094 C 20.628906 16.527344 19.636719 17.828125 18.992188 18.515625 C 20.464844 18.488281 21.929688 18.367188 23.386719 18.152344 C 23.230469 17.734375 23.058594 17.320312 22.863281 16.917969 C 22.578125 16.300781 22.253906 15.699219 21.890625 15.121094 "/>
<path fill-rule="nonzero" fill="url(#linear-pattern-3)" d="M 29.253906 9.785156 C 26.601562 10.589844 23.960938 11.933594 20.558594 10.863281 C 18.871094 10.332031 16.625 8.679688 14.238281 6.871094 C 16.738281 8.910156 19.839844 11.800781 21.898438 15.132812 C 23.773438 13.039062 26.273438 10.722656 29.253906 9.785156 "/>
<path fill-rule="nonzero" fill="url(#linear-pattern-4)" d="M 23.394531 18.144531 C 23.90625 19.550781 24.171875 21 24.136719 22.476562 C 24.082031 24.675781 23.066406 25.9375 22.808594 26.1875 C 26.433594 22.835938 28.058594 18.761719 31.585938 15.707031 C 32.179688 15.1875 32.855469 14.761719 33.582031 14.453125 C 31.257812 15.414062 28.75 17.339844 23.394531 18.144531 "/>
<path fill-rule="nonzero" fill="url(#linear-pattern-5)" d="M 37.894531 13.761719 C 38.378906 13.761719 37.894531 13.207031 37.398438 12.921875 C 37.011719 12.691406 36.605469 12.472656 36.285156 12.171875 C 35.96875 11.863281 35.613281 11.03125 35.464844 10.785156 C 35.03125 10.050781 34.386719 9.484375 33.070312 9.316406 C 31.742188 9.148438 30.488281 9.40625 29.242188 9.785156 C 26.265625 10.722656 23.757812 13.046875 21.882812 15.121094 C 22.242188 15.699219 22.566406 16.292969 22.863281 16.90625 C 23.058594 17.308594 23.230469 17.722656 23.386719 18.144531 C 28.75 17.332031 31.257812 15.414062 33.574219 14.441406 C 35.03125 13.804688 36.390625 13.753906 37.230469 13.761719 Z M 37.894531 13.761719 "/>
<path fill-rule="nonzero" fill="url(#linear-pattern-6)" d="M 10.511719 26.265625 C 15.050781 23.191406 17.800781 19.78125 19.003906 18.507812 C 9.183594 18.726562 5.039062 13.558594 3.617188 11.351562 C 6.3125 15.539062 10.5 18.871094 9.699219 23.527344 C 8.644531 29.550781 0.746094 30.101562 0.746094 30.101562 C 0.746094 30.101562 4.457031 30.355469 10.511719 26.265625 "/>
<path fill-rule="nonzero" fill="rgb(100%, 100%, 100%)" fill-opacity="1" d="M 32.804688 10.785156 C 32.597656 10.785156 32.398438 10.863281 32.25 11.011719 C 32.105469 11.15625 32.019531 11.355469 32.019531 11.5625 C 32.019531 11.992188 32.371094 12.339844 32.804688 12.339844 C 33.121094 12.34375 33.40625 12.152344 33.523438 11.859375 C 33.648438 11.570312 33.582031 11.234375 33.359375 11.011719 C 33.210938 10.867188 33.011719 10.785156 32.804688 10.785156 "/>
</svg>

<svg role="img" viewBox="0 0 38.826 32" height="32" width="38.826" xmlns="http://www.w3.org/2000/svg"><defs><linearGradient gradientTransform="translate(.305 109.961)scale(.08836)" gradientUnits="userSpaceOnUse" id="173__166__60__53__fluentd-lp-1" x1="5.034" x2="430.799" y1="-964.816" y2="-964.816"><stop offset="0" stop-color="rgb(17.254902%, 61.960784%, 78.039216%)"/><stop offset=".404" stop-color="rgb(17.254902%, 38.823529%, 64.705882%)"/><stop offset="1" stop-color="rgb(22.352941%, 36.470588%, 63.137255%)"/></linearGradient><linearGradient gradientTransform="translate(.305 109.961)scale(.08836)" gradientUnits="userSpaceOnUse" id="174__167__61__54__linear-pattern-2" x1="5.027" x2="430.792" y1="-1054.146" y2="-1054.146"><stop offset="0" stop-color="rgb(30.980392%, 66.666667%, 76.862745%)"/><stop offset=".002" stop-color="rgb(18.431373%, 45.882353%, 69.411765%)"/><stop offset="1" stop-color="rgb(20.784314%, 43.137255%, 67.45098%)"/></linearGradient><linearGradient gradientTransform="translate(.305 109.961)scale(.08836)" gradientUnits="userSpaceOnUse" id="175__168__62__55__linear-pattern-3" x1="157.652" x2="433.241" y1="-1120.056" y2="-1120.056"><stop offset="0" stop-color="rgb(30.980392%, 66.666667%, 76.862745%)"/><stop offset=".002" stop-color="rgb(18.431373%, 50.588235%, 71.372549%)"/><stop offset="1" stop-color="rgb(23.137255%, 36.862745%, 66.27451%)"/></linearGradient><linearGradient gradientTransform="translate(.305 109.961)scale(.08836)" gradientUnits="userSpaceOnUse" id="176__169__63__56__linear-pattern-4" x1="157.642" x2="433.23" y1="-1014.548" y2="-1014.548"><stop offset="0" stop-color="rgb(30.980392%, 66.666667%, 76.862745%)"/><stop offset=".002" stop-color="rgb(11.764706%, 21.568627%, 45.098039%)"/><stop offset="1" stop-color="rgb(12.54902%, 20%, 43.921569%)"/></linearGradient><linearGradient gradientTransform="translate(.305 109.961)scale(.08836)" gradientUnits="userSpaceOnUse" id="177__170__64__57__linear-pattern-5" x1="336.003" x2="336.003" y1="-991.53" y2="-1142.651"><stop offset="0" stop-color="rgb(30.980392%, 66.666667%, 76.862745%)"/><stop offset=".002" stop-color="rgb(17.254902%, 35.294118%, 60.392157%)"/><stop offset="1" stop-color="rgb(21.568627%, 27.058824%, 50.196078%)"/></linearGradient><linearGradient gradientTransform="translate(.305 109.961)scale(.08836)" gradientUnits="userSpaceOnUse" id="178__171__65__58__linear-pattern-6" x1="-40.934" x2="272.681" y1="-1009.902" y2="-1009.902"><stop offset=".112" stop-color="rgb(21.960784%, 69.411765%, 85.490196%)"/><stop offset="1" stop-color="rgb(19.607843%, 43.529412%, 70.980392%)"/></linearGradient></defs><path d="M37.895 13.762h-.665c-1.21-.016-3.542.117-5.644 1.937-5.04 4.356-6.188 10.778-14.8 14.242-7.184 2.891-16.04.16-16.04.16s7.899-.55 8.942-6.574c.824-4.71-3.473-8.058-6.157-12.308C.79 6.887.094 3.293 1.411 1.734c3.737-4.418 14.03 7.52 19.148 9.13 5 1.573 8.375-2.075 12.52-1.548 1.323.168 1.968.743 2.394 1.47.14.245.504 1.077.82 1.386.312.3.727.52 1.113.75.489.293.973.84.489.84" fill="rgb(16.470588%, 34.901961%, 63.529412%)"/><path d="M14.238 6.86c-1.234-.946-2.508-1.926-3.773-2.825a41.326 41.326 0 0 0-.848-.594C6.25 1.137 3.133-.305 1.41 1.734.094 3.293.79 6.887 3.531 11.22a.618.618 0 0 0 .086.133c1.434 2.207 5.567 7.386 15.387 7.164.644-.688 1.625-1.977 2.894-3.395-2.066-3.32-5.16-6.219-7.66-8.262" fill="url(#179__172__59__52__linear-pattern-0)"/><path d="M24.129 22.477c.035-1.477-.23-2.926-.742-4.332a34.483 34.483 0 0 1-4.395.363c-1.199 1.273-3.941 4.683-8.492 7.758-6.043 4.09-9.754 3.836-9.754 3.836s8.856 2.73 16.027-.153c2.575-1.031 4.48-2.332 6.028-3.762.258-.25 1.273-1.503 1.328-3.71" fill="url(#173__166__60__53__linear-pattern-1)"/><path d="M21.89 15.121c-1.261 1.406-2.253 2.707-2.898 3.395a34.483 34.483 0 0 0 4.395-.364 14.254 14.254 0 0 0-.524-1.234 15.957 15.957 0 0 0-.972-1.797" fill="url(#174__167__61__54__linear-pattern-2)"/><path d="M29.254 9.785c-2.652.805-5.293 2.149-8.695 1.078-1.688-.531-3.934-2.183-6.32-3.992 2.5 2.04 5.6 4.93 7.66 8.262 1.874-2.094 4.374-4.41 7.355-5.348" fill="url(#175__168__62__55__linear-pattern-3)"/><path d="M23.395 18.145c.511 1.406.777 2.855.742 4.332-.055 2.199-1.07 3.46-1.328 3.71 3.625-3.351 5.25-7.425 8.777-10.48a7.477 7.477 0 0 1 1.996-1.254c-2.324.961-4.832 2.887-10.187 3.692" fill="url(#176__169__63__56__linear-pattern-4)"/><path d="M37.895 13.762c.484 0 0-.555-.497-.84-.386-.23-.793-.45-1.113-.75-.316-.309-.672-1.14-.82-1.387-.434-.734-1.078-1.3-2.395-1.469-1.328-.168-2.582.09-3.828.47-2.976.937-5.484 3.26-7.36 5.335.36.578.684 1.172.981 1.785.196.403.367.817.524 1.239 5.363-.813 7.87-2.73 10.187-3.704 1.457-.636 2.817-.687 3.656-.68Zm0 0" fill="url(#177__170__64__57__linear-pattern-5)"/><path d="M10.512 26.266c4.539-3.075 7.289-6.485 8.492-7.758-9.82.219-13.965-4.95-15.387-7.156 2.696 4.187 6.883 7.52 6.082 12.175C8.645 29.551.746 30.102.746 30.102s3.711.253 9.766-3.836" fill="url(#178__171__65__58__linear-pattern-6)"/><path d="M32.805 10.785a.78.78 0 0 0-.785.777c0 .43.351.778.785.778a.764.764 0 0 0 .718-.48.768.768 0 0 0-.164-.848.797.797 0 0 0-.554-.227" fill="rgb(100%, 100%, 100%)"/></svg>
